data/kzn/icons/metro.svg

<?xml version="1.0" encoding="UTF-8" standalone="no"?>
<svg
   xmlns:dc="http://purl.org/dc/elements/1.1/"
   xmlns:cc="http://creativecommons.org/ns#"
   xmlns:rdf="http://www.w3.org/1999/02/22-rdf-syntax-ns#"
   xmlns:svg="http://www.w3.org/2000/svg"
   xmlns="http://www.w3.org/2000/svg"
   xmlns:sodipodi="http://sodipodi.sourceforge.net/DTD/sodipodi-0.dtd"
   xmlns:inkscape="http://www.inkscape.org/namespaces/inkscape"
   width="170.18605"
   height="170.18605"
   id="svg2178"
   sodipodi:version="0.32"
   inkscape:version="0.48.5 r10040"
   inkscape:output_extension="org.inkscape.output.emf.win32"
   sodipodi:docname="metro.svg"
   sodipodi:modified="true"
   version="1.1">
  <metadata
     id="metadata2215">
    <rdf:RDF>
      <cc:Work
         rdf:about="">
        <dc:format>image/svg+xml</dc:format>
        <dc:type
           rdf:resource="http://purl.org/dc/dcmitype/StillImage" />
      </cc:Work>
    </rdf:RDF>
  </metadata>
  <defs
     id="defs2213" />
  <sodipodi:namedview
     inkscape:window-height="705"
     inkscape:window-width="1366"
     inkscape:pageshadow="2"
     inkscape:pageopacity="0.0"
     guidetolerance="10.0"
     gridtolerance="10.0"
     objecttolerance="10.0"
     borderopacity="1.0"
     bordercolor="#666666"
     pagecolor="#ffffff"
     id="base"
     inkscape:zoom="2.8284272"
     inkscape:cx="126.55301"
     inkscape:cy="83.804113"
     inkscape:window-x="-4"
     inkscape:window-y="-4"
     inkscape:current-layer="svg2178"
     showgrid="false"
     inkscape:window-maximized="1"
     fit-margin-top="0"
     fit-margin-left="0"
     fit-margin-right="0"
     fit-margin-bottom="0">
    <inkscape:grid
       type="xygrid"
       id="grid2998"
       empspacing="5"
       visible="true"
       enabled="true"
       snapvisiblegridlinesonly="true"
       originx="0.093003139px"
       originy="0.093021154px" />
  </sodipodi:namedview>
  <g
     id="g3784"
     transform="translate(0.09300314,0.1205791)">
    <path
       id="path2180"
       d="m 144.66405,25.308397 -2.06217,-1.999676 -1.99967,-1.812206 -2.06217,-1.812206 -1.99967,-1.624737 -2.12466,-1.624736 -2.12466,-1.499757 -2.18714,-1.499757 -2.12466,-1.312287 -2.31212,-1.374777 L 123.41749,9.56095 121.10537,8.3736425 118.85573,7.3738046 116.48112,6.3739667 114.1065,5.4991085 111.6694,4.6867402 109.29478,3.9993517 106.35776,3.1869833 103.42073,2.4995948 100.42122,1.8746961 97.421707,1.437267 94.297213,0.99983791 91.23521,0.8123683 88.110716,0.6248987 l -3.124493,0 -2.249636,0 L 78.987195,0.74987844 75.362783,1.0623278 71.80086,1.4997569 68.363917,2.1246556 62.3024,3.4369428 56.490842,5.249149 50.804264,7.4362945 48.05471,8.7485817 l -2.687065,1.4372673 -5.311639,3.062003 -2.624574,1.687227 -2.499595,1.874696 -2.499595,1.937186 -2.437105,2.062166 -2.374615,2.187145 -2.312125,2.312125 -2.749554,2.749554 -2.562085,2.874534 -2.374615,2.937024 -2.187145,3.062004 -2.124656,2.999514 -1.937186,3.186983 -1.7497161,3.186983 -1.5622467,3.311963 -1.4997569,3.249474 -1.3122873,3.436942 -1.1248176,3.436943 -0.9373481,3.561923 -0.8123683,3.561922 -0.6873885,3.686903 -0.499919,3.686902 -0.31244933,3.811882 -0.24995947,4.68674 0,2.249636 0.0624899,4.56176 0.3749392,4.499271 0.4999189,4.374291 0.8123683,4.311805 0.499919,2.4371 0.6248987,2.4996 0.6248987,2.37461 0.8123683,2.43711 0.8123683,2.31212 0.937348,2.37462 0.9373481,2.24963 1.1248176,2.31213 1.0623278,2.18714 1.2497975,2.24964 1.249797,2.12465 1.374777,2.18715 1.374778,2.06216 1.562246,2.12466 3.311963,4.12433 1.937186,2.24964 2.124656,2.31212 1.312287,1.31229 4.061842,3.87437 2.124655,1.81221 2.187146,1.74971 2.187145,1.62474 2.249635,1.56225 2.249636,1.49975 2.374615,1.43727 2.312125,1.31229 2.374615,1.24979 2.374615,1.12482 2.499595,1.12482 2.437105,0.93735 2.562084,0.93735 5.18666,1.62473 2.624574,0.6249 2.687064,0.56241 5.561599,0.87486 2.812044,0.31245 2.874534,0.24996 2.874534,0.12498 2.999514,0.0625 0.06249,0 1.124817,-0.0625 1.187308,0 2.374615,-0.0625 4.62425,-0.37494 2.249636,-0.31245 2.312125,-0.24996 4.499266,-0.74988 1.37478,-0.37494 0.31245,-0.12498 0.37494,-0.0625 0.74988,-0.12498 2.87453,-0.81237 2.81205,-0.87485 1.37477,-0.49992 0.68739,-0.24996 0.74988,-0.18747 2.68707,-1.12482 1.31228,-0.6249 1.37478,-0.56241 2.62457,-1.31229 0.6249,-0.37493 0.31245,-0.18747 0.37494,-0.12498 1.37478,-0.6249 2.49959,-1.56225 2.4996,-1.56225 1.18731,-0.87485 1.24979,-0.81237 2.4996,-1.74972 2.37461,-1.93718 2.37462,-1.93719 1.12482,-1.06233 1.1873,-0.99984 2.31213,-2.12465 1.2498,-1.31229 2.06216,-2.24963 1.99968,-2.24964 2.62457,-3.37445 1.2498,-1.74972 1.2498,-1.68723 2.24963,-3.49943 0.49992,-0.93735 0.56241,-0.87485 1.06233,-1.74972 0.93735,-1.8747 0.18746,-0.49992 0.24996,-0.43742 0.49992,-0.87486 0.81237,-1.8747 0.87486,-1.81221 0.74988,-1.93718 0.74988,-1.8747 1.31228,-3.87437 0.81237,-2.99951 0.68739,-2.99952 0.24996,-1.56224 0.31245,-1.49976 0.24996,-1.562247 0.31245,-1.499757 0.12498,-1.624737 0,-0.437429 0.0625,-0.374939 0.12498,-0.749878 0.12498,-1.624737 0,-0.437429 0.0625,-0.374939 0.12498,-0.749879 0.18747,-3.249473 0,-1.624737 0,-0.812368 0.0625,-0.749878 0,-0.06249 -0.12498,-4.249311 -0.24996,-4.061842 -0.49992,-4.061841 -0.56241,-3.874372 -0.68739,-3.124494 -0.68739,-2.999514 -0.87486,-2.999513 -0.93734,-2.874534 -1.06233,-2.874534 -1.18731,-2.812044 -1.31229,-2.812045 -1.31228,-2.687064 -1.56225,-2.749554 -1.62474,-2.624575 -1.74971,-2.624574 -1.81221,-2.499595 -1.93719,-2.499595 -2.06216,-2.437105 -2.18715,-2.437105 -2.24963,-2.312125 z m -48.117201,68.301428 -5.374129,0.06249 -5.936538,6.561435 -0.312449,-0.312449 -0.31245,0.312449 -5.936537,-6.561435 -5.374129,-0.06249 -15.185038,33.182125 -39.993517,0 39.056169,-98.671509 27.745502,40.243476 27.807987,-40.243476 38.99368,98.671509 -39.93102,0 -15.247531,-33.182125 z"
       style="fill:#acbaac;fill-opacity:1;fill-rule:nonzero;stroke:none"
       inkscape:connector-curvature="0" />
    <path
       id="path2182"
       d="M 96.546849,93.609825 84.923733,68.363917 73.300617,93.609825 l 5.374129,0.06249 5.936537,6.561435 0.31245,-0.312449 0.312449,0.312449 5.936538,-6.561435 z"
       style="fill:#04562c;fill-opacity:1;fill-rule:nonzero;stroke:none"
       inkscape:connector-curvature="0" />
    <path
       id="path2184"
       d="m 96.546849,93.609825 15.247531,33.182125 39.93102,0 -38.99368,-98.671509 -27.807987,40.243476 z"
       style="fill:#04562c;fill-opacity:1;fill-rule:nonzero;stroke:none"
       inkscape:connector-curvature="0" />
    <path
       id="path2186"
       d="M 84.923733,68.363917 57.178231,28.120441 18.122062,126.79195 l 39.993517,0 15.185038,-33.182125 z"
       style="fill:#04562c;fill-opacity:1;fill-rule:nonzero;stroke:none"
       inkscape:connector-curvature="0" />
    <path
       id="path2190"
       d="m 84.594372,100.12687 0.330503,0.35712 0.326141,-0.3619"
       style="fill:none;stroke:#ffffff;stroke-width:1.37428796px;stroke-linecap:round;stroke-linejoin:round;stroke-opacity:1;stroke-dasharray:none"
       inkscape:connector-curvature="0" />
    <path
       id="path2192"
       d="m 96.546849,93.609825 -5.374129,0.06249 -5.936538,6.561435"
       style="fill:none;stroke:#ffffff;stroke-width:1.24979734px;stroke-linecap:round;stroke-linejoin:round;stroke-opacity:1;stroke-dasharray:none"
       inkscape:connector-curvature="0" />
    <path
       id="path2194"
       d="m 73.300617,93.609825 5.374129,0.06249 5.936537,6.561435"
       style="fill:none;stroke:#ffffff;stroke-width:1.24979734px;stroke-linecap:round;stroke-linejoin:round;stroke-opacity:1;stroke-dasharray:none"
       inkscape:connector-curvature="0" />
    <path
       id="path2196"
       d="M 84.923733,68.363917 96.546849,93.609825"
       style="fill:none;stroke:#ffffff;stroke-width:1.24979734px;stroke-linecap:round;stroke-linejoin:round;stroke-opacity:1;stroke-dasharray:none"
       inkscape:connector-curvature="0" />
    <path
       id="path2198"
       d="M 84.923733,68.363917 73.300617,93.609825"
       style="fill:none;stroke:#ffffff;stroke-width:1.24979734px;stroke-linecap:round;stroke-linejoin:round;stroke-opacity:1;stroke-dasharray:none"
       inkscape:connector-curvature="0" />
    <path
       id="path2200"
       d="M 18.122062,126.79195 57.178231,28.120441 84.923733,68.363917"
       style="fill:none;stroke:#ffffff;stroke-width:1.24979734px;stroke-linecap:round;stroke-linejoin:round;stroke-opacity:1;stroke-dasharray:none"
       inkscape:connector-curvature="0" />
    <path
       id="path2202"
       d="m 58.115579,126.79195 -39.993517,0"
       style="fill:none;stroke:#ffffff;stroke-width:1.24979734px;stroke-linecap:round;stroke-linejoin:round;stroke-opacity:1;stroke-dasharray:none"
       inkscape:connector-curvature="0" />
    <path
       id="path2204"
       d="m 111.79438,126.79195 39.93102,0"
       style="fill:none;stroke:#ffffff;stroke-width:1.24979734px;stroke-linecap:round;stroke-linejoin:round;stroke-opacity:1;stroke-dasharray:none"
       inkscape:connector-curvature="0" />
    <path
       id="path2206"
       d="M 151.7254,126.79195 112.73172,28.120441 84.923733,68.363917"
       style="fill:none;stroke:#ffffff;stroke-width:1.24979734px;stroke-linecap:round;stroke-linejoin:round;stroke-opacity:1;stroke-dasharray:none"
       inkscape:connector-curvature="0" />
    <path
       id="path2208"
       d="M 96.546849,93.609825 111.79438,126.79195"
       style="fill:none;stroke:#ffffff;stroke-width:1.24979734px;stroke-linecap:round;stroke-linejoin:round;stroke-opacity:1;stroke-dasharray:none"
       inkscape:connector-curvature="0" />
    <path
       id="path2210"
       d="M 73.300617,93.609825 58.115579,126.79195"
       style="fill:none;stroke:#ffffff;stroke-width:1.24979734px;stroke-linecap:round;stroke-linejoin:round;stroke-opacity:1;stroke-dasharray:none"
       inkscape:connector-curvature="0" />
    <path
       transform="matrix(2.7347325,0,0,2.6485991,-578.17261,-21.560683)"
       d="m 273.25,40.222443 c 0,17.53504 -13.76724,31.75 -30.75,31.75 -16.98276,0 -30.75,-14.21496 -30.75,-31.75 0,-17.535041 13.76724,-31.7500004 30.75,-31.7500004 16.98276,0 30.75,14.2149594 30.75,31.7500004 z"
       sodipodi:ry="31.75"
       sodipodi:rx="30.75"
       sodipodi:cy="40.222443"
       sodipodi:cx="242.5"
       id="path5139"
       style="fill:none;stroke:#04562c;stroke-width:0.74312943;stroke-linecap:round;stroke-linejoin:round;stroke-miterlimit:4;stroke-opacity:1;stroke-dasharray:none;stroke-dashoffset:0"
       sodipodi:type="arc" />
  </g>
</svg>

<?xml version="1.0" encoding="UTF-8" standalone="no"?>
<svg
   xmlns:dc="http://purl.org/dc/elements/1.1/"
   xmlns:cc="http://creativecommons.org/ns#"
   xmlns:rdf="http://www.w3.org/1999/02/22-rdf-syntax-ns#"
   xmlns:svg="http://www.w3.org/2000/svg"
   xmlns="http://www.w3.org/2000/svg"
   xmlns:sodipodi="http://sodipodi.sourceforge.net/DTD/sodipodi-0.dtd"
   xmlns:inkscape="http://www.inkscape.org/namespaces/inkscape"
   width="47.970001mm"
   height="47.970001mm"
   id="svg2178"
   sodipodi:version="0.32"
   inkscape:version="0.48.5 r10040"
   inkscape:output_extension="org.inkscape.output.emf.win32"
   sodipodi:docname="metro.svg"
   sodipodi:modified="true"
   version="1.1">
  <metadata
     id="metadata2215">
    <rdf:RDF>
      <cc:Work
         rdf:about="">
        <dc:format>image/svg+xml</dc:format>
        <dc:type
           rdf:resource="http://purl.org/dc/dcmitype/StillImage" />
      </cc:Work>
    </rdf:RDF>
  </metadata>
  <defs
     id="defs2213" />
  <sodipodi:namedview
     inkscape:window-height="768"
     inkscape:window-width="1280"
     inkscape:pageshadow="2"
     inkscape:pageopacity="0.0"
     guidetolerance="10.0"
     gridtolerance="10.0"
     objecttolerance="10.0"
     borderopacity="1.0"
     bordercolor="#666666"
     pagecolor="#ffffff"
     id="base"
     inkscape:zoom="1.4142136"
     inkscape:cx="77.426597"
     inkscape:cy="83.711092"
     inkscape:window-x="-4"
     inkscape:window-y="-4"
     inkscape:current-layer="svg2178"
     showgrid="false"
     inkscape:window-maximized="0" />
  <g
     id="g2997">
    <path
       id="path2180"
       d="  M 144.66405 25.308397   L 142.60188 23.308721   L 140.60221 21.496515   L 138.54004 19.684309   L 136.54037 18.059572   L 134.41571 16.434836   L 132.29105 14.935079   L 130.10391 13.435322   L 127.97925 12.123035   L 125.66713 10.748258   L 123.41749 9.56095   L 121.10537 8.3736425   L 118.85573 7.3738046   L 116.48112 6.3739667   L 114.1065 5.4991085   L 111.6694 4.6867402   L 109.29478 3.9993517   L 106.35776 3.1869833   L 103.42073 2.4995948   L 100.42122 1.8746961   L 97.421707 1.437267   L 94.297213 0.99983791   L 91.23521 0.8123683   L 88.110716 0.6248987   L 84.986223 0.6248987   L 82.736587 0.6248987   L 78.987195 0.74987844   L 75.362783 1.0623278   L 71.80086 1.4997569   L 68.363917 2.1246556   L 62.3024 3.4369428   L 56.490842 5.249149   L 50.804264 7.4362945   L 48.05471 8.7485817   L 45.367645 10.185849   L 40.056006 13.247852   L 37.431432 14.935079   L 34.931837 16.809775   L 32.432242 18.746961   L 29.995137 20.809127   L 27.620522 22.996272   L 25.308397 25.308397   L 22.558843 28.057951   L 19.996758 30.932485   L 17.622143 33.869509   L 15.434998 36.931513   L 13.310342 39.931027   L 11.373156 43.11801   L 9.6234399 46.304993   L 8.0611932 49.616956   L 6.5614363 52.86643   L 5.249149 56.303372   L 4.1243314 59.740315   L 3.1869833 63.302238   L 2.374615 66.86416   L 1.6872265 70.551063   L 1.1873075 74.237965   L 0.87485817 78.049847   L 0.6248987 82.736587   L 0.6248987 84.986223   L 0.68738857 89.547983   L 1.0623278 94.047254   L 1.5622467 98.421545   L 2.374615 102.73335   L 2.874534 105.17045   L 3.4994327 107.67005   L 4.1243314 110.04466   L 4.9366997 112.48177   L 5.749068 114.79389   L 6.686416 117.16851   L 7.6237641 119.41814   L 8.7485817 121.73027   L 9.8109095 123.91741   L 11.060707 126.16705   L 12.310504 128.2917   L 13.685281 130.47885   L 15.060059 132.54101   L 16.622305 134.66567   L 19.934268 138.79   L 21.871454 141.03964   L 23.99611 143.35176   L 25.308397 144.66405   L 29.370239 148.53842   L 31.494894 150.35063   L 33.68204 152.10034   L 35.869185 153.72508   L 38.11882 155.28733   L 40.368456 156.78708   L 42.743071 158.22435   L 45.055196 159.53664   L 47.429811 160.78643   L 49.804426 161.91125   L 52.304021 163.03607   L 54.741126 163.97342   L 57.30321 164.91077   L 62.48987 166.5355   L 65.114444 167.1604   L 67.801508 167.72281   L 73.363107 168.59767   L 76.175151 168.91012   L 79.049685 169.16008   L 81.924219 169.28506   L 84.923733 169.34755   L 84.986223 169.34755   L 86.11104 169.28506   L 87.298348 169.28506   L 89.672963 169.22257   L 94.297213 168.84763   L 96.546849 168.53518   L 98.858974 168.28522   L 103.35824 167.53534   L 104.73302 167.1604   L 105.04547 167.03542   L 105.42041 166.97293   L 106.17029 166.84795   L 109.04482 166.03558   L 111.85687 165.16073   L 113.23164 164.66081   L 113.91903 164.41085   L 114.66891 164.22338   L 117.35598 163.09856   L 118.66826 162.47366   L 120.04304 161.91125   L 122.66761 160.59896   L 123.29251 160.22403   L 123.60496 160.03656   L 123.9799 159.91158   L 125.35468 159.28668   L 127.85427 157.72443   L 130.35387 156.16218   L 131.54118 155.28733   L 132.79097 154.47496   L 135.29057 152.72524   L 137.66518 150.78806   L 140.0398 148.85087   L 141.16462 147.78854   L 142.35192 146.7887   L 144.66405 144.66405   L 145.91385 143.35176   L 147.97601 141.10213   L 149.97569 138.85249   L 152.60026 135.47804   L 153.85006 133.72832   L 155.09986 132.04109   L 157.34949 128.54166   L 157.84941 127.60431   L 158.41182 126.72946   L 159.47415 124.97974   L 160.4115 123.10504   L 160.59896 122.60512   L 160.84892 122.1677   L 161.34884 121.29284   L 162.16121 119.41814   L 163.03607 117.60593   L 163.78595 115.66875   L 164.53583 113.79405   L 165.84811 109.91968   L 166.66048 106.92017   L 167.34787 103.92065   L 167.59783 102.35841   L 167.91028 100.85865   L 168.16024 99.296403   L 168.47269 97.796646   L 168.59767 96.171909   L 168.59767 95.73448   L 168.66016 95.359541   L 168.78514 94.609663   L 168.91012 92.984926   L 168.91012 92.547497   L 168.97261 92.172558   L 169.09759 91.422679   L 169.28506 88.173206   L 169.28506 86.548469   L 169.28506 85.736101   L 169.34755 84.986223   L 169.34755 84.923733   L 169.22257 80.674422   L 168.97261 76.61258   L 168.47269 72.550739   L 167.91028 68.676367   L 167.22289 65.551873   L 166.5355 62.552359   L 165.66064 59.552846   L 164.7233 56.678312   L 163.66097 53.803778   L 162.47366 50.991734   L 161.16137 48.179689   L 159.84909 45.492625   L 158.28684 42.743071   L 156.6621 40.118496   L 154.91239 37.493922   L 153.10018 34.994327   L 151.16299 32.494732   L 149.10083 30.057627   L 146.91368 27.620522   L 144.66405 25.308397  z    M 96.546849 93.609825   L 91.17272 93.672315   L 85.236182 100.23375   L 84.923733 99.921301   L 84.611283 100.23375   L 78.674746 93.672315   L 73.300617 93.609825   L 58.115579 126.79195   L 18.122062 126.79195   L 57.178231 28.120441   L 84.923733 68.363917   L 112.73172 28.120441   L 151.7254 126.79195   L 111.79438 126.79195   L 96.546849 93.609825  z   "
       style="fill:#acbaac;fill-rule:nonzero;fill-opacity:1;stroke:none;stroke-linecap:round" />
    <path
       id="path2182"
       d="  M 96.546849 93.609825   L 84.923733 68.363917   L 73.300617 93.609825   L 78.674746 93.672315   L 84.611283 100.23375   L 84.923733 99.921301   L 85.236182 100.23375   L 91.17272 93.672315  z "
       style="fill:#04562c;fill-rule:nonzero;fill-opacity:1;stroke:none;stroke-linecap:round" />
    <path
       id="path2184"
       d="  M 96.546849 93.609825   L 111.79438 126.79195   L 151.7254 126.79195   L 112.73172 28.120441   L 84.923733 68.363917  z "
       style="fill:#04562c;fill-rule:nonzero;fill-opacity:1;stroke:none;stroke-linecap:round" />
    <path
       id="path2186"
       d="  M 84.923733 68.363917   L 57.178231 28.120441   L 18.122062 126.79195   L 58.115579 126.79195   L 73.300617 93.609825  z "
       style="fill:#04562c;fill-rule:nonzero;fill-opacity:1;stroke:none;stroke-linecap:round" />
    <path
       id="path2190"
       d="M 84.594372,100.12687 L 84.924875,100.48399 L 85.251016,100.12209"
       style="fill:none;stroke:#ffffff;stroke-width:1.37428796px;stroke-linejoin:round;stroke-dasharray:none;stroke-opacity:1;stroke-linecap:round" />
    <path
       id="path2192"
       d="  M 96.546849 93.609825   L 91.17272 93.672315   L 85.236182 100.23375  "
       style="fill:none;stroke:#ffffff;stroke-width:1.2497973px;stroke-linejoin:round;stroke-dasharray:none;stroke-opacity:1;stroke-linecap:round" />
    <path
       id="path2194"
       d="  M 73.300617 93.609825   L 78.674746 93.672315   L 84.611283 100.23375  "
       style="fill:none;stroke:#ffffff;stroke-width:1.2497973px;stroke-linejoin:round;stroke-dasharray:none;stroke-opacity:1;stroke-linecap:round" />
    <path
       id="path2196"
       d="  M 84.923733 68.363917   L 96.546849 93.609825  "
       style="fill:none;stroke:#ffffff;stroke-width:1.2497973px;stroke-linejoin:round;stroke-dasharray:none;stroke-opacity:1;stroke-linecap:round" />
    <path
       id="path2198"
       d="  M 84.923733 68.363917   L 73.300617 93.609825  "
       style="fill:none;stroke:#ffffff;stroke-width:1.2497973px;stroke-linejoin:round;stroke-dasharray:none;stroke-opacity:1;stroke-linecap:round" />
    <path
       id="path2200"
       d="  M 18.122062 126.79195   L 57.178231 28.120441   L 84.923733 68.363917  "
       style="fill:none;stroke:#ffffff;stroke-width:1.2497973px;stroke-linejoin:round;stroke-dasharray:none;stroke-opacity:1;stroke-linecap:round" />
    <path
       id="path2202"
       d="  M 58.115579 126.79195   L 18.122062 126.79195  "
       style="fill:none;stroke:#ffffff;stroke-width:1.2497973px;stroke-linejoin:round;stroke-dasharray:none;stroke-opacity:1;stroke-linecap:round" />
    <path
       id="path2204"
       d="  M 111.79438 126.79195   L 151.7254 126.79195  "
       style="fill:none;stroke:#ffffff;stroke-width:1.2497973px;stroke-linejoin:round;stroke-dasharray:none;stroke-opacity:1;stroke-linecap:round" />
    <path
       id="path2206"
       d="  M 151.7254 126.79195   L 112.73172 28.120441   L 84.923733 68.363917  "
       style="fill:none;stroke:#ffffff;stroke-width:1.2497973px;stroke-linejoin:round;stroke-dasharray:none;stroke-opacity:1;stroke-linecap:round" />
    <path
       id="path2208"
       d="  M 96.546849 93.609825   L 111.79438 126.79195  "
       style="fill:none;stroke:#ffffff;stroke-width:1.2497973px;stroke-linejoin:round;stroke-dasharray:none;stroke-opacity:1;stroke-linecap:round" />
    <path
       id="path2210"
       d="  M 73.300617 93.609825   L 58.115579 126.79195  "
       style="fill:none;stroke:#ffffff;stroke-width:1.2497973px;stroke-linejoin:round;stroke-dasharray:none;stroke-opacity:1;stroke-linecap:round" />
    <path
       transform="matrix(2.7347325,0,0,2.6485991,-578.17261,-21.560683)"
       d="M 273.25 40.222443 A 30.75 31.75 0 1 1  211.75,40.222443 A 30.75 31.75 0 1 1  273.25 40.222443 z"
       sodipodi:ry="31.75"
       sodipodi:rx="30.75"
       sodipodi:cy="40.222443"
       sodipodi:cx="242.5"
       id="path5139"
       style="opacity:1;fill:none;fill-opacity:1;stroke:#04562c;stroke-width:0.74312942;stroke-miterlimit:4;stroke-dasharray:none;stroke-dashoffset:0;stroke-opacity:1;stroke-linejoin:round;stroke-linecap:round"
       sodipodi:type="arc" />
  </g>
</svg>
